app/assets/images/heroicons/micro/chat-bubble-left.svg

<svg width="16" height="16" viewBox="0 0 16 16" fill="none" xmlns="http://www.w3.org/2000/svg">
<path d="M1 8.74067C1 9.72338 1.71344 10.5655 2.68911 10.6828C3.45355 10.7748 4.22402 10.8472 5 10.8994V13.25C5 13.5533 5.18273 13.8268 5.46299 13.9429C5.74324 14.059 6.06583 13.9948 6.28033 13.7803L8.7905 11.2702C8.97217 11.0885 9.21682 10.9842 9.47361 10.9758C10.7676 10.9332 12.0475 10.8347 13.311 10.6826C14.2866 10.5653 15 9.72316 15 8.74048V4.25947C15 3.27678 14.2866 2.43469 13.3109 2.3173C11.5698 2.1078 9.79728 2 7.99962 2C6.20224 2 4.43002 2.10777 2.68909 2.31721C1.71343 2.43458 1 3.27668 1 4.25938V8.74067Z" fill="black"/>
</svg>

<svg xmlns="http://www.w3.org/2000/svg" viewBox="0 0 16 16" fill="currentColor" aria-hidden="true" data-slot="icon">
  <path d="M1 8.74c0 .983.713 1.825 1.69 1.943.764.092 1.534.164 2.31.216v2.351a.75.75 0 0 0 1.28.53l2.51-2.51c.182-.181.427-.286.684-.294a44.298 44.298 0 0 0 3.837-.293C14.287 10.565 15 9.723 15 8.74V4.26c0-.983-.713-1.825-1.69-1.943a44.447 44.447 0 0 0-10.62 0C1.712 2.435 1 3.277 1 4.26v4.482Z"/>
</svg>
